X:90
T:Reels simple chords 21
M:3/4
L:1/8
K:Bm
A2 [d2D,2F,2A,2] A2 | GF EG [F2D,2F,2A,2] | A4 de | [fD,F,A,]e df e2 | c4< [d4D,4F,4A,4] |
A2 [d2D,2F,2A,2] | A2 GF EG | [F2D,2F,2A,2] A2 d2 | f2 [eE,^G,B,D]f ed |
c2 B4< [A4A,4C4E4] | de | [f2D,2F,2A,2] f2 e2 | fe [d2D,2F,2A,2] A4 |
a2 [b2G,2B,2D2] | a2 g2 f2 | [e6E,6G,6B,6] | de [f2D,2F,2A,2] f2 |
g2 fg [a2D,2F,2A,2] | f2 a2 ag | [f2D,2F,2A,2] ed e2 | c4< [d4D,4F,4A,4] |
a2 [fD,F,A,]e | de f2 g2 | [f2D,2F,2A,2] d4 | a2 [g2E,2G,2B,2] fe |
f2 e4< [d4D,4F,4A,4] | e2 | [fD,F,A,]e de f2 | g2 [f2B,2D2F2] d4 |
f2 [eE,G,B,]f | ef g2 f2 | [e6A,6C6E6G6] | a2 [fD,F,A,]e df |
e2 a2 [fD,F,A,]e | df e2 A2 | [B2G,2B,2D2] cd g2 | f4< [e4A,4C4E4] |
de [f2D,2F,2A,2] | f2 e2 fe | [d2G,2B,2D2] B2 A2 | AA [B2G,2B,2D2] cd |
e2 c4< [d4D,4F,4A,4] |


